X:1
T:Alma Redemptoris - Grassi
T:James Gibb editions
T:#
%%score { 1 | 2 } 3
L:1/8
Q:1/4=69
M:4/4
K:C
V:1 treble nm="Soprano I" snm="S"
V:2 treble 
V:3 treble nm="Alto" snm="A"
V:1
"^Alma Redemptoris, op.17/1""^Ciro Grassi\n (1868-1952)""^andante"!p! e4"^," d4 | c2 d2 e2 d2 | %2
w: Al- ma|Re- dem- pto- ris|
 (c4 f4) |"^," e6 e2 |!<(! f3 e!<)! d2 g2- | g2"^," f2 e3!>(! (d/c/) | (B2 c2!>)! d4) |"^," d8 | %8
w: Ma\- *|ter, qua|per- vi- a coe\-|* li por- ta *|ma\- * *|nes,|
[M:4/4]"^,"!p! d2 !>!e4 (dc) | (B2 e4 ^d2) | e8 | z2!f! g4 g2 |"^," ^f2 ^d2 e4- | e2 =d2 c3 c | %14
w: et stel- la *|ma\- * *|ris,|sur- ge-|re qui cu\-|* rat, po- pu-|
 !fermata!B8 |!ff!"^maestoso"[Q:1/4=63] B4 B2 BB |[Q:1/4=63][Q:1/4=63] e4"^," e2 e2 | %17
w: lo:|tu quae ge- nu-|i- sti, na-|
 ^f4"^," f2 f2 |!>(! g4"^," g4!>)! |!pp!"^a tempo"[Q:1/4=69][Q:1/4=69] (e3!<(! d c2) B2!<)! | %20
w: tu- ra mi-|ran- te,|tu\- * * um|
!>(! A4!>)!"^," A4 | (f3 e!<(! d2) c2!<)! |!>(! (B6 ^c2)!>)! |"^," d8 | %24
w: san- ctum|Ge\- * * ni-|to\- *|rem,|
[Q:1/4=69]!p![Q:1/4=69] (d2 !>!e4) (dc) | (B2 e4 ^d2) | e8 | z2!p! g4 =f2 | e4 d4 | c4 z4 | %30
w: Vir\- * go *|pri\- * *|us,|ac po-|ste- ri-|us|
!f! (e2 d2) (c2 d2) | e4 e2 ^f2 | g2 ^f2!>(! e4!>)! | d4 z4 |!pp! =f3 f (f4- | f2 ef gf) e2 | z8 | %37
w: ab * o\- *|re su- mens|il- lud A-|ve,|pec- ca- to\-|* * * * * rum,||
 c2 d2 e2 d2- |"^," d2 de (f2 e2 | d4 e2 f2) | !fermata!e8 |] %41
w: pec- ca- to- rum|* mi- se- re\- *||re.|
V:2
!p! c6"^," B2 | A2 B2 c2 A2 | (G4 A2 B2) |"^," c6 c2 |!<(! c2 A2!<)! B2 (c2 | %5
w: Al- ma|Re- dem- pto- ris|Ma\- * *|ter, qua|per- vi- a coe\-|
 A2)"^," B2 c3 (B/A/) | (G4 A4) |"^," B8 |[M:4/4]"^,"!p! B2 !>!c4 (BA) | (G3 A)"^," B4 | G2 c4 BA | %11
w: * li por- ta *|ma\- *|nes,|et stel- la *|ma\- * ris,|suc- cur- re ca-|
 B4 B4 |!f! ^d2 B2"^," c2 c2 | B2 A2 G3 G | !fermata!^F8 |!ff! B4 B2 BB | ^c4"^," c2 c2 | %17
w: den- ti,|sur- ge- re qui|cu- rat, po- pu-|lo:|tu quae ge- nu-|i- sti, na-|
 d4"^," d2 d2 |!>(! e4"^," e4!>)! |!pp! (c3!<(! B A2) G2!<)! |!>(! (G2 FE)!>)!"^," F4 | %21
w: tu- ra mi-|ran- te,|tu\- * * um|san\- * * ctum|
 (d3 c!<(! B2) A2!<)! |!>(! (A2 G^F G4)!>)! |"^," ^F8 |!p! (B2 !>!c4) (BA) | (G3 A) B4 | %26
w: Ge\- * * ni-|to\- * * *|rem,|Vir\- * go *|pri\- * us,|
 (G2 c4) (BA) | (B2 G2 A2 B2 | c6) B2 | c4 z4 |!f! (c2 B2) (A2 G2) | c4 B2 A2 | %32
w: ac * po\- *|ste\- * * *|* ri-|us|ab * o\- *|re su- mens|
 B2 B2!>(! (B2 A2)!>)! | B4 z4 |!pp! A3 A (A2 B2 | c4 d2) c2 |!>(! c3 c c4!>)! | c6 cc | (c8- | %39
w: il- lud A\- *|ve,|pec- ca- to\- *|* * rum,|pec- ca- to-|rum mi- se-|re\-|
 c4 B4) | !fermata!G8 |] %41
w: |re.|
V:3
!p! C4"^," G4 | A3 G C2 F2 | (E4 D4) |"^," C6 (cB) |!<(! A2 F2!<)! G2 (E2 | F2)"^," G2 A2!>(! ^F2 | %6
w: Al- ma|Re- dem- pto- ris|Ma\- *|ter, qua *|per- vi- a coe\-|* li por- ta|
 (G6!>)! ^F2) |"^," G8 |[M:4/4] z8 | z8 |!p! E2 !>!A4 G^F |!<(! E4!<)!"^," E4 |!f! B3 B"^," B2 A2 | %13
w: ma\- *|nes,|||suc- cur- re ca-|den- ti,|sur- ge- re qui|
 G2 ^F2 E3 E | !fermata!^D8 |!ff! B4 B2 BB | A4"^," A2 A2 | d4"^," d2 d2 | =c4"^," c4 |!pp! C6 C2 | %20
w: cu- rat, po- pu-|lo:|tu quae ge- nu-|i- sti, na-|tu- ra mi-|ran- te,|tu- um|
 D6"^," D2 | D6 D2 | E8 | D8 | z8 | z8 |!p! (E2 !>!A4) (G^F) | (E4 =F2 G2 | A3 G F2) G2 | %29
w: san- ctum|Ge- ni-|to-|rem,|||ac * po\- *|ste\- * *|* * * ri-|
 C4!f! c2 B2 | c2 G2 c2 B2- | B2 A2 G2 ^F2 | E2 D2 C4 |"^," G4!pp! D3 D | (D4 =F2 G2 | A4 B2) c2 | %36
w: us Ga- bri-|e- lis ab o\-|* re su- mens|il- lud A-|ve, pec- ca-|to\- * *|* * rum,|
 z8 |!p!!<(! E2 F2 G2 F2- | F2!<)! FG (_A4- |!>(! A4 G4)!>)! | !fermata!C8 |] %41
w: |pec- ca- to- rum|* mi- se- re\-||re.|

